icons/24x24_task_filled.svg

<svg xmlns="http://www.w3.org/2000/svg" width="24" height="24" viewBox="0 0 24 24">
  <path d="M7,6 C7,7.1045695 7.8954305,8 9,8 L15,8 C16.1045695,8 17,7.1045695 17,6 L18,6 C19.1045695,6 20,6.8954305 20,8 L20,20 C20,21.1045695 19.1045695,22 18,22 L6,22 C4.8954305,22 4,21.1045695 4,20 L4,8 C4,6.8954305 4.8954305,6 6,6 L7,6 Z M9.6,4 L10,4 C10,2.8954305 10.8954305,2 12,2 C13.1045695,2 14,2.8954305 14,4 L14.4,4 C15.2836556,4 16,4.7163444 16,5.6 L16,6 C16,6.55228475 15.5522847,7 15,7 L9,7 C8.44771525,7 8,6.55228475 8,6 L8,5.6 C8,4.7163444 8.7163444,4 9.6,4 Z M10,11 C9.44771525,11 9,11.4477153 9,12 C9,12.5522847 9.44771525,13 10,13 L14,13 C14.5522847,13 15,12.5522847 15,12 C15,11.4477153 14.5522847,11 14,11 L10,11 Z M10,15 C9.44771525,15 9,15.4477153 9,16 C9,16.5522847 9.44771525,17 10,17 L14,17 C14.5522847,17 15,16.5522847 15,16 C15,15.4477153 14.5522847,15 14,15 L10,15 Z"/>
</svg>

<svg width="24" height="24" fill="none" xmlns="http://www.w3.org/2000/svg"><path d="M7 6a2 2 0 0 0 2 2h6a2 2 0 0 0 2-2h1a2 2 0 0 1 2 2v12a2 2 0 0 1-2 2H6a2 2 0 0 1-2-2V8a2 2 0 0 1 2-2h1Zm2.6-2h.4a2 2 0 1 1 4 0h.4A1.6 1.6 0 0 1 16 5.6V6a1 1 0 0 1-1 1H9a1 1 0 0 1-1-1v-.4A1.6 1.6 0 0 1 9.6 4Zm.4 7a1 1 0 1 0 0 2h4a1 1 0 1 0 0-2h-4Zm0 4a1 1 0 1 0 0 2h4a1 1 0 1 0 0-2h-4Z" fill="#000"/></svg>
